X:1044
T:Lady Haddo's Strathspey.
M:C
L:1/8
Q:1/4=120
I: :| ||
N:bar 9 is printed |b/a/g/f/ da b/a/g/f/|
Z:Jack Campin * www.campin.me.uk * 2009
K:D
G|F/G/A   TA2 d>A``````B>A|d/c/B/c/ dF  E/E/E  DG|F/G/A TA2 d>A``````B>A|d/c/B/c/ dF  D/D/D D:|
g|fa```````da b/a/g/f/ ad |g<b``````a>f e/e/e  eg|fa`````da b/a/g/f/ ad |gb```````af  d/d/d da|
  b/a/g/f/ da ba```````gf |g<b``````a>f e/e/e Tef|d>f````ec d>B``````AF |G<B``````A>F D/D/D D|]
<end>
<start>
